dist/images/graphics/icons/onprice.svg

<svg width="18" height="18" fill="none" xmlns="http://www.w3.org/2000/svg"><path d="M7.6 13.2l7.05-7.05-1.4-1.4L7.6 10.4 4.75 7.55l-1.4 1.4L7.6 13.2zM2 18a1.93 1.93 0 01-1.413-.587A1.928 1.928 0 010 16V2C0 1.45.196.979.587.587A1.928 1.928 0 012 0h14c.55 0 1.021.196 1.413.587C17.804.979 18 1.45 18 2v14a1.93 1.93 0 01-.587 1.413A1.928 1.928 0 0116 18H2zm0-2h14V2H2v14zM2 2v14V2z" fill="#46E356"/></svg>

<svg width="18" height="18" viewBox="0 0 18 18" fill="none" xmlns="http://www.w3.org/2000/svg">
<path d="M7.6 13.2L14.65 6.15L13.25 4.75L7.6 10.4L4.75 7.55L3.35 8.95L7.6 13.2ZM2 18C1.45 18 0.979 17.8043 0.587 17.413C0.195667 17.021 0 16.55 0 16V2C0 1.45 0.195667 0.979 0.587 0.587C0.979 0.195667 1.45 0 2 0H16C16.55 0 17.021 0.195667 17.413 0.587C17.8043 0.979 18 1.45 18 2V16C18 16.55 17.8043 17.021 17.413 17.413C17.021 17.8043 16.55 18 16 18H2ZM2 16H16V2H2V16ZM2 2V16V2Z" fill="#46E356"/>
</svg>
